!!!COM: Bach, Johann Sebastian
!!!OTA: Das wohltemperirte Clavier
!!!OPR: Das wohltemperierte Klavier
!!!OTL: Fuga 11, Vol. 2
!!!XEN: The Well-Tempered Clavier, Volume 2, Fugue 11.
!!!ONB: F major, 3-part
!!!SCT: BWV 880b
!!!YEC: Copyright 1994, David Huron
!!!YEM: Rights to all derivative electronic formats reserved.
!!!RWG: Double-stops occur in measures 86 and 87; a degree of
!!!RWG: interpretive license is involved in encoding these measures.
**kern	**kern	**kern
*staff2	*staff1	*staff1
*clefF4	*clefG2	*clefG2
*k[b-]	*k[b-]	*k[b-]
*M6/16	*M6/16	*M6/16
*F:	*F:	*F:
*MM84	*MM84	*MM84
=1	=1	=1
4.r	4.r	8.r
.	.	16f
.	.	16e
.	.	16f
=2	=2	=2
4.r	4.r	8cc
.	.	16r
.	.	16a
.	.	16g
.	.	16a
=3	=3	=3
4.r	4.r	8dd
.	.	16r
.	.	16cc
.	.	16dd
.	.	16ee
=4	=4	=4
4.r	4.r	16ff
.	.	16ee
.	.	16dd
.	.	16cc
.	.	16dd
.	.	16b-
=5	=5	=5
4.r	8.r	16a
.	.	16g
.	.	16f
.	16c	8e
.	16B-	.
.	16c	16b-
=6	=6	=6
4.r	8f	8a
.	16r	16dd
.	16e	8g
.	16d	.
.	16e	16dd
=7	=7	=7
4.r	8a	8cc
.	16r	16ff
.	16g	8bn
.	16a	.
.	16bn	16ff
=8	=8	=8
4.r	16cc	16ee
.	16bn	16dd
.	16a	16cc
.	16g	8gg
.	16a	.
.	16f	16bn
=9	=9	=9
4.r	16e	[8.cc
.	16d	.
.	16c	.
.	16d	16cc]
.	16e	16b-
.	16f#	16a
=10	=10	=10
4.r	[8.g	16b-
.	.	16cc
.	.	16dd
.	16g]	[8.ee-
.	16fn	.
.	16e-	.
=11	=11	=11
4.r	16f	16ee-]
.	16g	16dd
.	16a	16cc
.	[8.b-	16dd
.	.	16een
.	.	16ff
=12	=12	=12
4.r	16b-]	[8.gg
.	16a	.
.	16g	.
.	16a	16gg]
.	16bn	16ff
.	16cc#	16ee
=13	=13	=13
4.r	[8.dd	16ff
.	.	16gg
.	.	16aa
.	16dd]	[8.bb-
.	16ccn	.
.	16b-	.
=14	=14	=14
8.r	16cc	16bb-]
.	16dd	16aa
.	16ee	16gg
16F	[8.ff	16aa
16E	.	16bb-
16F	.	16aa
=15	=15	=15
8c	16ff]	[8.gg
.	16ee	.
16r	16dd	.
16A	[8.cc	16gg]
16G	.	16ccc
16A	.	16ee
=16	=16	=16
8d	16cc]	8.ff
.	16a	.
16r	[16b-	.
16c	8.b-]	16ee
16d	.	16ff
16e	.	16gg
=17	=17	=17
16f	8a	8cc
16e	.	.
16d	16b-	16ff
16c	8a	8ff
16d	.	.
16B-	16g	16ee
=18	=18	=18
16A	16cc	8ff
16G	16b-	.
16F	16a	16r
[8.B-	16g	8.r
.	16a	.
.	16f	.
=19	=19	=19
8.B-]	16e	16gg
.	16d	16ff
.	16c	16ee
8.A	8.f#	16dd
.	.	16ee-
.	.	16cc
=20	=20	=20
16G	8g	16b-
16F	.	16a
16E	16r	16g
16D	[8.fn	8a
16E	.	.
16C	.	16dd
=21	=21	=21
16BBn	8.f]	8g
16AA	.	.
16GG	.	16dd
16C	8.e	8g
16BB	.	.
16C	.	[16ee
=22	=22	=22
8F	8.a	16ee]
.	.	16cc#
16r	.	[16dd
16E	8.g	16dd]
16D	.	16bn
16E	.	[16ccn
=23	=23	=23
8A	[4.f	16cc]
.	.	16ee
16r	.	16ff
16G	.	16bn
16A	.	16cc
16Bn	.	16dd
=24	=24	=24
16c	16f]	8g
16Bn	16e	.
16A	16f	16cc
16G	8e	8cc
16A	.	.
16F	16d	16bn
=25	=25	=25
16E	[8.c	8cc
16F	.	.
16D	.	16g
16C	8c]	8.b-
16D	.	.
16E	[16g	.
=26	=26	=26
16F	8g]	[8.a
16G	.	.
16E	16c	.
16D	[8.f	8a]
16E	.	.
16F	.	16dd
=27	=27	=27
16G	8f]	[8.g
16A	.	.
16F	16Bn	.
16E	16c	8g]
16F	16d	.
16G	16e	16g
=28	=28	=28
16A	16f	[8.cc
16G	16g	.
16F	16a	.
8G	8.d	16cc]
.	.	16cc
16GG	.	16bn
=29	=29	=29
16c	16e	8cc
16Bn	16g	.
16A	16f	16r
16G	16e	8.r
16A	16f	.
16F	16d	.
=30	=30	=30
16E	8c	16gg
16D	.	16ff
16C	16r	16ee
[8.F	8.r	16dd
.	.	16ee
.	.	16cc
=31	=31	=31
8.F]	16d	16bn
.	16c	16a
.	16Bn	16g
8.E	16A	8cc#
.	16B-	.
.	16G	16r
=32	=32	=32
8.D	16F	16aa
.	16E	16gg
.	16D	16ff
8.BB-	[8.G	16ee
.	.	16ff
.	.	16dd
=33	=33	=33
[4.AA	8.G]	16cc#
.	.	16bn
.	.	16a
.	16F	[8.dd
.	16E	.
.	16D	.
=34	=34	=34
8.AA_	16E	16dd]
.	16F#	16ccn
.	16G#	16bn
16AA]	8A	[8.cc
16BB-	.	.
16C	16r	.
=35	=35	=35
16D	8.r	16cc]
16E	.	16b-
16F#	.	16a
8G	16G	[8.b-
.	16A	.
16Fn	16B-	.
=36	=36	=36
8.E	[4.c	16b-]
.	.	16cc
.	.	16b-
8.E-	.	16a
.	.	16b-
.	.	16g
=37	=37	=37
[4.D	8.c]	16f#
.	.	16e
.	.	16d
.	16B-	[8.g
.	16A	.
.	16G	.
=38	=38	=38
8.D_	16A	16g]
.	16Bn	16fn
.	16c#	16e
16D]	[8.d	16f
16E	.	16g
16F	.	16a
=39	=39	=39
8.G	16d]	[8.b-
.	16cn	.
.	16B-	.
8.E	[8.c	16b-]
.	.	16a
.	.	16g
=40	=40	=40
[8.F	16c]	[8.a
.	16d	.
.	16e	.
16F]	[8.f	16a]
16G	.	16b-
16A	.	16cc
=41	=41	=41
8.B-	16f]	[8.dd
.	16e	.
.	16d	.
8.G	[8.e	16dd]
.	.	16cc
.	.	16b-
=42	=42	=42
[8.A	16e]	[8.cc
.	16f	.
.	16g	.
16A]	[8.a	16cc]
16B-	.	16dd
16c	.	16ee
=43	=43	=43
8.d	16a]	[8.ff
.	16g	.
.	16f	.
8.Bn	[8.g	16ff]
.	.	16ee
.	.	16dd
=44	=44	=44
[8.c	16g]	[8.ee
.	16a	.
.	16bn	.
16c]	8cc	16ee]
16d	.	16ff
16e	16r	16gg
=45	=45	=45
16f	4.r	16aa
16e	.	16gg
16d	.	16ff
16c	.	16ee
16d	.	32ff
.	.	32ee
16B-	.	32dd
.	.	32cc
=46	=46	=46
16A	8r	4.ff
16G	.	.
16F	16dd	.
16G	8bn	.
16A	.	.
16Bn	[16g	.
=47	=47	=47
16c	8g]	16ee-
16Bn	.	16gg
16A	16cc	16ff#
16G	16bn	[8.gg
16A-	16cc	.
16F	16dd	.
=48	=48	=48
16E-	16cc	8.gg]
16D	16dd	.
16C	16ee-	.
16D	[8.a	16ff#
16En	.	16gg
16F#	.	16aa
=49	=49	=49
16G	8a]	16b-
16Fn	.	16dd
16E-	16g	16cc
16D	8g	16b-
16E-	.	16cc
16C	16f#	16a
=50	=50	=50
16BB-	4.g	8g
16AA	.	.
16GG	.	16ee-
16AA	.	8cc#
16BBn	.	.
16C#	.	[16a
=51	=51	=51
16D	8f	16a]
16Cn	.	16a
16BB-	16g	16dd
16AA	8a	16cc#
16BB-	.	16dd
16GG	16r	16ee
=52	=52	=52
16FF	8.r	16dd
16EE	.	16ee
16DD	.	16ff
8D	16F	[8.b-
.	16E	.
16r	16F	.
=53	=53	=53
8E	8c	16b-]
.	.	16ee
16r	16r	16gg
8E-	16A	[8.cc
.	16G	.
16r	16A	.
=54	=54	=54
16D	8d	16cc]
16En	.	16b-
16F	16r	16a
16E	16c	8b-
16F	16d	.
16G	16e	16r
=55	=55	=55
8AA	16f	8r
.	16e	.
16BB-	16d	16b-
8C	16c	8a
.	16d	.
16C#	16B-	16g
=56	=56	=56
[8.D	16A	[8.f
.	16G	.
.	16F	.
16D]	[8.B-	16f]
16Cn	.	16e-
16BB-	.	16d
=57	=57	=57
[8.F	16B-]	[8.c
.	16A	.
.	16G	.
8F]	[8.A	16c]
.	.	16d
16E-	.	16e-
=58	=58	=58
8D	16A]	[8.f
.	16B-	.
16C	16c	.
8BB-	[8.d	16f]
.	.	16g
16AA	.	16a
=59	=59	=59
8GG	16d]	[8.b-
.	16e-	.
16FF	16f	.
8EE-	[8.g	16b-]
.	.	16cc
16DD	.	16dd
=60	=60	=60
[8.CC	16g]	[4.ee-
.	16a	.
.	16b-	.
16CC]	8cc	.
16DD	.	.
16EE-	16b-	.
=61	=61	=61
[4.FF	8.a	16ee-]
.	.	16dd
.	.	16cc
.	[8.b-	16dd
.	.	16ee-
.	.	16dd
=62	=62	=62
4.FF_	16b-]	[8.cc
.	16a	.
.	16g	.
.	[8.a	16cc]
.	.	16cc
.	.	16ff
=63	=63	=63
4.FF_	16a]	[8.b-
.	16g	.
.	16f	.
.	[8.g	16b-]
.	.	16b-
.	.	16ee-
=64	=64	=64
4.FF_	16g]	[8.a
.	16f	.
.	16en	.
.	[8.f	16a]
.	.	16a
.	.	16dd
=65	=65	=65
8FF]	16f]	[8.g
.	16e-	.
16r	16d	.
8.r	[8.e-	16g]
.	.	16g
.	.	16cc
=66	=66	=66
8.r	16e-]	[8.f
.	16d	.
.	16c	.
16BB-	8.d	8f]
16AA	.	.
16BB-	.	[16b-
=67	=67	=67
8F	8.c	16b-]
.	.	16g
16r	.	[16a
16D	[8.f	8a]
16C	.	.
16D	.	16dd
=68	=68	=68
8G	16f]	8.b-
.	16d	.
16r	16e-	.
16F	8.r	16a
16G	.	16b-
16A	.	16cc
=69	=69	=69
16B-	4.r	16dd
16A	.	16cc
16G	.	16ee-
16F	.	16dd
16G	.	16ee-
16E-	.	16cc
=70	=70	=70
16D	8.r	[4.b-
16C	.	.
16BB-	.	.
16B-	16d	.
16c	16e-	.
16d	16f	.
=71	=71	=71
16e-	16g	4.b-_
16d	16f	.
16c	16a-	.
16B-	16g	.
16c	16a-	.
16A-	16f	.
=72	=72	=72
8G	16en	8.b-_
.	16f	.
16F	16g	.
8En	[8.c	16b-]
.	.	16g
16C	.	16a-
=73	=73	=73
8F	16c]	[8.a-
.	16A-	.
16r	16B-	.
8D	[8.B-	16a-]
.	.	16f
16r	.	16g
=74	=74	=74
8En	16B-]	[8.g
.	16G	.
16r	16A-	.
8F	[8.A-	16g]
.	.	16en
16r	.	16f
=75	=75	=75
8D-	16A-]	[8.f
.	16F	.
16r	16G	.
8BBn	[8.G	16f]
.	.	16d
16r	.	16en
=76	=76	=76
[4.C	16G]	8e
.	16Bn	.
.	[16c	16r
.	16c]	[8.a-
.	16e	.
.	16f	.
=77	=77	=77
4.C_	[8.B-	16a-]
.	.	16g
.	.	16f
.	16B-]	[8.g
.	16E	.
.	16G	.
=78	=78	=78
4.C_	[4.A-	16g]
.	.	16f
.	.	16e
.	.	16f
.	.	16cc
.	.	16ff
=79	=79	=79
4.C_	16A-]	[8.b-
.	16G	.
.	16F	.
.	16E	16b-]
.	16G	16ee
.	[16B-	16gg
=80	=80	=80
4.C_	16B-]	[8.cc
.	16A-	.
.	16G	.
.	16F	16cc]
.	16A-	16ff
.	16c	16aa-
=81	=81	=81
4.C_	16c	8dd-
.	16B-	.
.	16A-	16ff
.	16G	8bb-
.	16A-	.
.	16F	16dd-
=82	=82	=82
16C]	8E	8cc
16D	.	.
16E	16r	16bb-
16F	8.r	8aa-
16G	.	.
16A-	.	16ff
=83	=83	=83
4.DD	8.r	16bn
.	.	16ff
.	.	16gg
.	8.BBn	16aa-
.	.	16gg
.	.	[16ff
=84	=84	=84
8CC	8C	16ff]
.	.	16een
16r	16D	[16dd-
8r	8E	16dd-]
.	.	16cc
[16C	16C	[16b-
=85	=85	=85
8C]	8F	16b-]
.	.	16a-
16r	16G	16g
8.A-	16r	16f
.	16c	16e
.	16Bn	[16f
=86	=86	=86
8C 8G	8c 8cc	16f]
.	.	16d
16r	16r	16e
8C 8F	8c 8e-	16an
.	.	16g
16r	16r	16a
=87	=87	=87
16BB-	8B- 8d- 8f	8b- 8dd-
16D-	.	.
16F	16r	16r
16B-	8.r	16cc
16A	.	16ddn
16G	.	16een
=88	=88	=88
8A	8r	16ff
.	.	16ee
16B-	16b-	16dd
8c	8a	16cc
.	.	16dd
16C	16g	16b-
=89	=89	=89
8F	16f	16a
.	8r	32f
.	.	32g
16r	.	32a
.	.	32b-
16FF	16r	[8.cc
16EE	16a	.
16FF	16e-	.
=90	=90	=90
8BB-	16e-	8.cc]
.	32d	.
.	32f	.
16r	32g	.
.	32a	.
16GG	16b-	[8.b-
16FF	16d	.
16GG	16f	.
=91	=91	=91
8C	16f	16.b-]
.	[8en	.
.	.	32g
16r	.	32a
.	.	32b-
16AA	16e]	[8.cc
16GG	16e	.
16AA	16g	.
=92	=92	=92
8D	16g	16.cc]
.	[8f	.
.	.	32a
16r	.	32b-
.	.	32cc
16BB-	32f]	[8.dd
.	32cc	.
16AA	32b-	.
.	32a	.
16BB-	32g	.
.	32f	.
=93	=93	=93
8E	16g	32dd]
.	.	32b-
.	16r	32cc
.	.	32dd
16r	16r	32ee
.	.	32ff
16C	8.r	32gg
.	.	32ff
16D	.	32ee
.	.	32dd
16E	.	32cc
.	.	32b-
=94	=94	=94
16F	8.r	16a
16E	.	16cc
16D	.	16b-
16C	8r	[8.cc
16D	.	.
16BB-	16e	.
=95	=95	=95
16AA	8f	8cc]
16BB-	.	.
16GG	16b-	16dd
16FF	16a	8.ee-
16GG	16b-	.
16AA	[16cc	.
=96	=96	=96
16BB-	8cc]	[8.dd
16C	.	.
16AA	16f	.
16GG	[8.b-	8dd]
16AA	.	.
16BB-	.	16gg
=97	=97	=97
16C	8b-]	[8.ee
16D	.	.
16BB-	16g	.
16AA	[8.cc	8ee]
16BB-	.	.
16C	.	16aa
=98	=98	=98
16D	16cc]	8ff
16C	16a	.
16BB-	16b-	16dd
8C	8f	16a
.	.	16b-
16CC	16e	16g
=99	=99	=99
4.FF	4.f	4.f
==	==	==
*-	*-	*-
!!!CDT: 1685/3/-1750/7/28
!!!OCY: Deutschland
!!!PPP: Leipzig
!!!ODT: 1738//-1742//
!!!PDT: 1739//-1742//
!!!AFR: fuga; fugue
!!!AST: polyphony
!!!AMT: compound duple
!!!SCA: Bach-Werke-Verzeichnis
!!!YOR: Bach Gesellschaft
!!!SMS: British Library, various
!!!AIN: cemba; clavi
!!!EEV: 1.0
!!!RDT: 1986 December 4
!!!YER: 1994 August 10
!!!EFL: 35/48
!!!VTS: 103681057
